X: 5
T: Palmer's Gate
R: reel
M: 4/4
L: 1/8
K: Amaj
d|:cFFG ABcA |B2 cB AFF2|A3B cBAB|cefe cBBd|
|c2 FG ABcA|BdcB AFEF|ABce fecB|ABGA F2 Bd:||
|:cffe fece|a2 ge fecB|A3B cBAB|cefe cBBd|
|cffe fece|a2 ge fecB|ABce fecB|ABGA F3 B:||


Tune 1020	Setting 14241

